packages/foundations/assets/icons/functional/images/notification/exclamation_mark_circle_24.svg

<svg width="24" height="24" viewBox="0 0 24 24" fill="none" xmlns="http://www.w3.org/2000/svg">
<g clip-path="url(#clip0_187_176)">
<path fill-rule="evenodd" clip-rule="evenodd" d="M12 2C17.5312 2 22 6.4688 22 12C22 17.5312 17.5312 22 12 22C6.4688 22 2 17.5312 2 12C2 6.4688 6.4688 2 12 2ZM12 4C7.5938 4 4 7.5938 4 12C4 16.4062 7.5938 20 12 20C16.4062 20 20 16.4062 20 12C20 7.5938 16.4062 4 12 4ZM11.0002 13.0623C11 13.5938 11.4687 14.0312 12.0312 14.0312C12.5937 14.0312 13 13.625 12.9997 13.0623L13 7C13 6.4375 12.5937 6 12.0312 6C11.4687 6 11 6.4375 11 7L11.0002 13.0623ZM12.025 17.8125C11.4 17.8125 10.9 17.3125 10.9 16.6875C10.9 16.0625 11.4 15.5625 12.025 15.5625C12.65 15.5625 13.15 16.0625 13.15 16.6875C13.15 17.3125 12.65 17.8125 12.025 17.8125Z" fill="#1A1C1F"/>
</g>
<defs>
<clipPath id="clip0_187_176">
<rect width="24" height="24" fill="white"/>
</clipPath>
</defs>
</svg>

<svg xmlns="http://www.w3.org/2000/svg" width="24" height="24" fill="none"><g clip-path="url(#a)"><path fill="#1A1C1F" fill-rule="evenodd" d="M12 2a9.99 9.99 0 0 1 10 10 9.99 9.99 0 0 1-10 10A9.99 9.99 0 0 1 2 12 9.99 9.99 0 0 1 12 2m0 2c-4.406 0-8 3.594-8 8s3.594 8 8 8 8-3.594 8-8-3.594-8-8-8m-1 9.062c0 .532.469.97 1.031.97.563 0 .969-.407.969-.97V7c0-.562-.406-1-.969-1S11 6.438 11 7zm1.025 4.75a1.12 1.12 0 0 1-1.125-1.125c0-.625.5-1.125 1.125-1.125s1.125.5 1.125 1.126-.5 1.125-1.125 1.125" clip-rule="evenodd"/></g><defs><clipPath id="a"><path fill="#fff" d="M0 0h24v24H0z"/></clipPath></defs></svg>
